assets/align-horizontal-right.svg

<svg xmlns="http://www.w3.org/2000/svg" fill="none" viewBox="0 0 17 12">
  <path fill="#2A2238" d="M14 3.5h.5v1H14v-1Zm-13 1C.723858 4.5.5 4.27614.5 4s.223858-.5.5-.5v1Zm13 0H1v-1h13v1Z"/>
  <path stroke="#2A2238" stroke-linecap="round" d="M16 11V1"/>
  <path fill="#2A2238" d="M14 7.5h.5v1H14v-1Zm-7 1c-.27614 0-.5-.22386-.5-.5s.22386-.5.5-.5v1Zm7 0H7v-1h7v1Z"/>
</svg>

<svg width="17" height="12" viewBox="0 0 17 12" fill="none" xmlns="http://www.w3.org/2000/svg">
<path d="M14 3.5H14.5V4.5H14V3.5ZM1 4.5C0.723858 4.5 0.5 4.27614 0.5 4C0.5 3.72386 0.723858 3.5 1 3.5V4.5ZM14 4.5H1V3.5H14V4.5Z" fill="#2A2238"/>
<path d="M16 11V1" stroke="#2A2238" stroke-linecap="round"/>
<path d="M14 7.5H14.5V8.5H14V7.5ZM7 8.5C6.72386 8.5 6.5 8.27614 6.5 8C6.5 7.72386 6.72386 7.5 7 7.5V8.5ZM14 8.5H7V7.5H14V8.5Z" fill="#2A2238"/>
</svg>
